X: 1821
T: Tommy Johnson
M:6/8
L:1/8
B:O'Neill's 1821
Z:"Transcribed by Bob Safranek, rjs@gsp.org"
K:D
     a3     g3   |  fdf   ecA  | d2 f  ecA | d2 e ecA |
    dcd    ede   |  fef   gfg  | a2 G F2 E | D3   D2 :|
|: (D2 F) (E2 G) | (F2 A) G2 F | GAB   ABc | B3   A3  |
    GFG    AGA   |  BAB   cBc  | d2 G F2 E | D3   D2 :|


